X: 28688
T: Mwynen Cynwyd
R: jig
M: 6/8
K: Gmajor
c|:BGG G2D|GBd dcB|eAA A2A|cde edc|
BGG G2D|GBd dcB|cBc Adc|BGG G2c:|
|:e2g e2g|e2g eBe|d2g d2g|d2g dBd|
eAA A2A|cde ede|=fed edc|de=f edc:|

